X: 7716
T: Colonel Fraser
R: reel
M: 4/4
K: Gmajor
A|BGAF DG~G2|AF~F2 ~d2cA|BGAF GBeg|fdcA dBcA|
BGAF DG~G2|AF~F2 ~d2cA|BGAF GBeg|fdcA ~G3:|
|:B|dggf ~g2ag|fddc ABcA|dgga bgag|fdcA G2 (3Bcd|
gagf ~d3c|BG~G2 ADFA|GBAc (3Bcd ge|fdcA ~G3:|
|:A|Bd~d2 BGdB|AGFG ABcA|Bd^cd BGdB|=cAFG AGGA|
Bd~d2 BGdB|AGFG AB (3cBA|GBAc (3Bcd ge|fdcA ~G3:|
|:A|~B2GB ~B2GB|~A2FA DAFA|~B2GB ~B2GB|(3cBA FG AGGA|
~B2GB GBGB|~A2FA FAFA|GBAc (3Bcd ge|fdcA ~G3:|
|:A|(3Bcd gd (3Bcd gd|Adfd Adfd|(3Bcd gd (3Bcd gd|cAFG AGGA|
(3Bcd gd gdgd|Adfd AdFA|GBAc (3Bcd ge|fdcA ~G3:|

